frontend/src/assets/logo.svg

<?xml version="1.0" encoding="UTF-8" standalone="no"?>
<svg
   xmlns:dc="http://purl.org/dc/elements/1.1/"
   xmlns:cc="http://creativecommons.org/ns#"
   xmlns:rdf="http://www.w3.org/1999/02/22-rdf-syntax-ns#"
   xmlns:svg="http://www.w3.org/2000/svg"
   xmlns="http://www.w3.org/2000/svg"
   xmlns:sodipodi="http://sodipodi.sourceforge.net/DTD/sodipodi-0.dtd"
   xmlns:inkscape="http://www.inkscape.org/namespaces/inkscape"
   inkscape:version="1.0 (4035a4fb49, 2020-05-01)"
   sodipodi:docname="logo.svg"
   id="svg4"
   version="1.1"
   fill="none"
   viewBox="0 0 126 48"
   height="48"
   width="126">
  <metadata
     id="metadata10">
    <rdf:RDF>
      <cc:Work
         rdf:about="">
        <dc:format>image/svg+xml</dc:format>
        <dc:type
           rdf:resource="http://purl.org/dc/dcmitype/StillImage" />
      </cc:Work>
    </rdf:RDF>
  </metadata>
  <defs
     id="defs8" />
  <sodipodi:namedview
     inkscape:current-layer="svg4"
     inkscape:window-maximized="1"
     inkscape:window-y="-8"
     inkscape:window-x="-8"
     inkscape:cy="34.099023"
     inkscape:cx="88.032097"
     inkscape:zoom="14.478853"
     showgrid="false"
     id="namedview6"
     inkscape:window-height="1017"
     inkscape:window-width="2560"
     inkscape:pageshadow="2"
     inkscape:pageopacity="0"
     guidetolerance="10"
     gridtolerance="10"
     objecttolerance="10"
     borderopacity="1"
     bordercolor="#666666"
     pagecolor="#ffffff" />
  <path
     style="stroke:none"
     id="path2"
     stroke-width="0.0282747"
     stroke="#EA5254"
     fill="#569CCD"
     d="M103.936 47.1898C102.936 47.067 102.056 46.5634 101.452 45.7636C100.927 45.0704 100.67 44.1947 100.731 43.3118C100.789 42.4174 101.174 41.5999 101.819 40.9763C102.143 40.6622 102.38 40.4924 102.768 40.3053C103.334 40.0251 103.934 39.9097 104.608 39.9492C106.195 40.0399 107.565 41.2107 107.914 42.778C108.093 43.5858 107.996 44.4151 107.635 45.1674C106.972 46.5491 105.458 47.3777 103.935 47.1909L103.936 47.1898ZM18.171 47.1404C17.6638 47.0909 17.1567 46.8478 16.7811 46.4975C16.4068 46.1463 16.2196 45.801 16.025 45.1047C15.0178 41.4687 14.2203 39.0936 13.2323 36.7844C11.0666 31.7256 7.95611 27.2706 2.4191 21.2926C1.56177 20.3661 1.51345 20.3117 1.41244 20.1602C0.449306 18.7193 1.25824 16.7758 2.95534 16.4268L3.13015 16.3856L3.20437 16.0345C3.61996 14.111 4.60297 12.0801 5.84506 10.581C6.05368 10.3379 6.64327 9.73196 7.03116 9.37546C9.20356 7.38071 11.5889 6.20364 14.1016 5.88621C15.0093 5.77164 16.1225 5.79554 17.0689 5.9439C19.4107 6.32142 21.6904 7.53186 23.5498 9.38772C25.6735 11.5056 27.1528 14.3191 27.7094 17.3031C27.7671 17.435 27.7671 17.5438 27.7671 17.5463C27.7671 17.5499 27.9378 17.4886 28.1374 17.4053C29.025 17.041 31.1218 16.2282 31.1755 16.2282C31.2333 16.2282 31.2333 16.1541 31.1178 15.9356C30.9051 15.3042 30.722 14.4241 30.6231 13.66C30.5101 12.806 30.5018 11.6265 30.5488 10.7709C30.8432 7.8399 32.2036 5.29428 34.4146 3.52208C35.768 2.43683 37.5193 1.60382 39.1401 1.27419C39.836 1.13324 40.0971 1.10686 40.8985 1.10686C41.6423 1.10629 41.7308 1.11052 42.3022 1.21238C44.0244 1.51077 45.6023 2.43462 46.7063 3.79088C47.5638 4.84464 48.1053 6.08163 48.3154 7.46354C48.3897 7.88969 48.4062 8.70415 48.3897 9.16311C48.1769 11.5631 46.8475 13.7125 44.4389 15.4989C43.0669 16.5161 41.1836 17.5205 38.8233 18.4929C38.6105 18.5835 38.4275 18.6577 38.42 18.6627C38.3458 18.6791 39.0055 19.2116 39.3328 19.4465C40.0485 19.9625 40.8578 20.2986 41.6986 20.4274C42.0902 20.485 42.8243 20.485 43.2286 20.431C44.3565 20.2802 45.5537 19.8688 46.5899 19.2758C48.9487 17.9254 51.1335 15.2454 52.0046 12.6329C52.1176 12.3016 52.2091 11.9818 52.2916 11.572C52.3493 11.431 52.3823 11.2398 52.4087 11.1483C52.4664 11.0577 52.5167 10.8137 52.5744 10.6092C53.1236 8.40875 54.0434 6.57852 55.3866 4.99921C55.6736 4.65878 56.3708 3.96697 56.6979 3.69166C57.6962 2.85172 58.7292 2.22585 59.8615 1.77563C60.8387 1.3874 61.7274 1.16402 62.8139 1.03461C63.2056 0.993371 64.629 0.985179 65.022 1.03095C66.0804 1.14635 66.979 1.36478 67.9303 1.74147C68.9882 2.15773 70.0324 2.78468 70.9356 3.54565C71.4666 3.99406 72.2418 4.79477 72.5809 5.24762L72.6938 5.39104L72.9437 5.40749C73.5432 5.45698 74.0249 5.67209 74.4376 6.05702C74.7955 6.39415 75.0676 6.87553 75.1583 7.35122C75.216 7.63148 75.216 7.84249 75.216 8.19116C75.1583 8.52499 75.1583 8.92641 75.1154 9.76223C74.9942 12.4715 74.7864 14.3406 74.256 17.5452C73.8446 20.0642 73.1752 22.432 72.1202 25.1215C72.0459 25.2352 72.0294 25.3309 72.0377 25.335C72.0377 25.3386 72.1746 25.2855 72.3329 25.2146C74.1185 24.4563 75.4826 23.4224 76.5175 22.044C77.2209 21.1075 77.8042 19.9551 78.2149 18.6864C78.4392 18.0023 78.5093 17.7107 78.5439 17.5053C78.5439 17.3974 78.6016 17.1418 78.6264 16.9366C78.727 16.2549 78.8969 15.4662 79.1022 14.7614C80.4903 10.0303 84.0797 6.69848 88.582 5.96166C89.5622 5.80092 90.6604 5.78361 91.6738 5.91222C93.7422 6.17269 95.7198 7.0555 97.3398 8.44193C98.1281 9.1162 98.9019 9.98598 99.387 10.7422L99.4694 10.8707L99.6739 10.8712C100.606 10.8742 101.434 11.3741 101.85 12.1855C102.033 12.5465 102.121 12.8795 102.121 13.295C102.121 13.6106 102.063 13.8192 101.904 14.6851C101.634 16.0161 101.552 16.4025 101.444 17.0106C101.019 19.3069 100.781 21.2269 100.687 23.0883C100.63 23.6892 100.63 25.0723 100.687 25.5896C100.804 27.6418 101.207 29.1915 101.864 30.1995C102.002 30.413 102.139 30.577 102.408 30.8507C102.699 31.1523 102.869 31.4252 102.987 31.7872C103.278 32.6534 103.044 33.6173 102.401 34.2633C101.9 34.7645 101.293 34.9978 100.57 34.9697C99.8816 34.9368 99.3433 34.6771 98.7789 34.0825C98.2479 33.5294 97.8259 32.9447 97.4427 32.257C96.8573 31.203 96.389 29.8262 96.1398 28.4225C96.0821 28.2816 96.0821 28.1604 96.0821 28.1563C96.0821 28.1526 95.965 28.2304 95.8322 28.3145C93.6283 29.8154 90.8946 30.4191 88.0929 30.024C85.2882 29.6283 82.6128 28.1971 80.8556 26.1531C80.6726 25.9347 80.2495 25.3989 80.1902 25.302C80.1902 25.2856 80.116 25.2856 80.0995 25.3515C78.2558 27.6127 75.8803 29.194 72.7733 30.2309C71.7931 30.5582 70.5463 30.878 69.4527 31.0809L69.1575 31.1303L68.9043 31.5631C67.9473 33.1897 66.6916 35.1127 65.8167 36.2906C64.9049 37.5187 64.156 38.3899 63.4522 39.0431C61.8298 40.549 60.2489 41.4899 58.5021 41.9884C57.1147 42.384 55.692 42.4261 54.3903 42.1079C52.485 41.6422 50.972 40.4556 50.1484 38.7816C49.7047 37.8854 49.4961 37.0302 49.4722 36.0188C49.4145 34.7417 49.7047 33.6081 50.3144 32.4043C50.9139 31.2278 51.7667 30.2776 52.9291 29.5003C54.5756 28.3986 56.6464 27.76 59.9296 27.3413C60.7228 27.2399 61.166 27.1938 63.7618 26.9366C64.3976 26.8789 65.1604 26.7948 65.4578 26.7618C65.7538 26.7206 66.0069 26.7041 66.0193 26.7041C66.077 26.7041 67.0176 24.7545 66.9894 24.7271C66.9894 24.7227 66.9317 24.7308 66.8888 24.7436C66.5978 24.8482 65.9408 25.0147 65.5248 25.0914C64.7612 25.2324 64.2309 25.2785 63.4069 25.2785C62.5263 25.2771 61.9184 25.2208 61.0598 25.0428C58.7302 24.5721 56.5287 23.3871 54.9491 21.7521C54.3999 21.1825 53.7922 20.3991 53.4981 19.8763C53.4404 19.8269 53.4404 19.7716 53.4239 19.7724C53.4239 19.7732 53.3332 19.8549 53.254 19.9538C52.615 20.7063 51.7028 21.5769 50.8633 22.237C49.2816 23.4803 47.646 24.3135 45.7044 24.8657C44.513 25.2029 43.2413 25.3595 42.0619 25.31C38.8994 25.1773 36.123 23.6444 33.8038 20.7482C33.6908 20.6081 33.5877 20.4943 33.5836 20.4943C33.5259 20.4943 32.0261 21.0689 31.3001 21.3524C29.9352 21.8849 28.822 22.3584 27.7928 22.8485L27.5685 22.954L27.4679 23.2697C27.068 24.7239 26.3921 26.0962 25.5127 27.264C24.5858 28.5 24.2022 28.9269 23.6315 29.3687C22.7479 30.0528 21.7653 30.4182 20.8117 30.4182C20.4044 30.4182 20.0622 30.3687 19.6687 30.2319C19.0065 30.0119 18.4464 29.6063 18.0167 29.0326C17.8452 28.8076 17.6135 28.3534 17.5203 28.0709C17.1047 26.7974 17.4073 25.3256 18.3646 23.9884C18.5691 23.7007 18.7678 23.4649 19.1719 23.0297C19.3549 22.8261 19.5586 22.6176 19.5916 22.5648C19.7087 22.4329 20.3189 21.87 20.6217 21.6121C21.2484 21.0805 22.2336 20.3711 22.9018 19.9706C22.976 19.9293 23.0387 19.8799 23.0428 19.8659C23.1005 19.8247 23.0428 19.1405 22.9851 18.7026C22.8144 17.4 22.3732 16.0991 21.6984 14.9126C21.4823 14.5466 21.0791 13.9478 20.8027 13.6025C20.5075 13.2291 19.9814 12.6841 19.6458 12.3954C18.725 11.6016 17.7206 11.0619 16.6992 10.8115C16.174 10.6829 15.8026 10.6466 15.1924 10.6581C14.5583 10.6664 14.1291 10.7488 13.5135 10.945C12.3233 11.3316 11.1439 12.0917 9.98083 13.2264C9.58914 13.6056 9.39536 13.8422 9.12242 14.2555C8.40255 15.3501 7.94836 16.538 7.81659 17.6722C7.75887 17.9821 7.75887 18.5654 7.81659 18.8553C7.87431 19.3531 8.02521 19.8862 8.23219 20.3687C8.34516 20.6152 8.3567 20.6432 8.6618 20.9894C11.4777 24.2527 13.643 27.2312 15.3266 30.1528C17.4711 33.8776 19.0136 37.7642 20.5421 43.2912C20.8126 44.274 20.8167 44.3003 20.8332 44.6072C20.8909 45.689 20.2139 46.651 19.1774 47.0074C18.8863 47.1079 18.46 47.1533 18.1457 47.1178L18.171 47.1404ZM56.5062 37.4657C57.5482 37.3453 58.669 36.7815 59.7959 35.8074C60.4342 35.2551 61.1949 34.3788 62.0104 33.2597C62.426 32.686 62.9412 31.9331 62.9251 31.9187C62.9251 31.9143 62.1252 31.9929 61.2944 32.0819C57.8682 32.4594 56.0282 33.0214 55.0826 33.9801C54.8995 34.1722 54.7123 34.4145 54.5911 34.6849C54.3751 35.1152 54.3083 35.4276 54.3083 35.8362C54.3083 36.2236 54.3908 36.517 54.5581 36.7837C54.8872 37.3006 55.646 37.5643 56.5101 37.4654L56.5062 37.4657ZM90.4737 25.2587C93.4153 24.9216 95.3983 22.6982 96.0356 19.0224C96.1767 18.1804 96.2187 17.7818 96.2187 17.0839C96.2187 15.1114 95.8031 13.8566 94.7583 12.7116C94.5381 12.4693 94.1736 12.133 93.9089 11.9302C93.1197 11.3194 92.1662 10.9115 91.1432 10.7469C90.8233 10.6975 89.9934 10.6892 89.6368 10.7304C88.8774 10.8211 88.2337 11.0115 87.5241 11.3618C85.4098 12.4083 83.9301 14.6004 83.4626 17.3784C83.2837 18.4419 83.221 19.7697 83.3257 20.4586C83.4461 21.3006 83.7867 22.0673 84.3457 22.7946C84.5618 23.0781 85.1274 23.6265 85.447 23.8645C86.4903 24.6442 87.693 25.1178 89.003 25.2646C89.3518 25.3058 90.1312 25.3058 90.4706 25.2639L90.4737 25.2587ZM63.9618 20.4318C66.6825 20.1862 68.6003 18.408 69.451 15.3426C69.6134 14.7499 69.7049 14.2557 69.8253 13.4456C69.883 13.0631 69.883 13.0013 69.883 12.2467C69.883 11.4257 69.883 11.201 69.7824 10.6962C69.5911 9.51681 69.1351 8.59618 68.3293 7.7649C67.6449 7.05932 66.959 6.58931 66.1366 6.25869C64.4438 5.57784 62.4587 5.74599 60.8171 6.70957C58.8291 7.87634 57.507 10.0318 57.0909 12.7847C56.9491 13.7353 56.9078 14.9797 56.987 15.596C57.0958 16.3016 57.349 16.9852 57.7506 17.5807C57.9963 17.9459 58.162 18.1495 58.4853 18.47C59.3991 19.3793 60.6503 20.0337 61.9972 20.3088C62.2718 20.3583 62.6718 20.4201 62.9321 20.4407C63.1522 20.4572 63.7253 20.449 63.9451 20.4363L63.9618 20.4318ZM36.4314 14.2438C38.6247 13.3606 40.208 12.565 41.3245 11.7833C42.1598 11.1989 42.8267 10.535 43.1878 9.92829C43.737 9.00378 43.7188 7.93972 43.1301 7.05347C42.7425 6.4773 42.1419 6.09581 41.425 5.97943C41.2205 5.93819 40.6787 5.93819 40.4649 5.98089C39.6256 6.11278 38.783 6.4499 37.9564 6.98955C37.3099 7.41241 36.7492 7.97144 36.3394 8.59822C36.1695 8.85952 35.9007 9.39611 35.7902 9.68618C35.3243 10.992 35.2592 12.5605 35.6533 14.0764C35.7111 14.2586 35.7539 14.4276 35.7539 14.454C35.7539 14.4704 35.754 14.4952 35.8282 14.4952C35.8282 14.4952 36.1283 14.3798 36.4812 14.2397L36.4314 14.2438ZM107.627 38.148C107.102 38.0738 106.579 37.8142 106.21 37.4325C105.84 37.0624 105.65 36.6602 105.548 36.1405C105.548 36.0663 105.491 35.8841 105.491 35.7292C105.491 35.4588 105.491 35.4159 105.732 34.2605C106.461 30.6368 107.479 25.0728 108.713 17.9924C109.12 15.6454 109.128 15.61 109.256 15.0569C110.131 11.2095 111.961 8.35277 114.504 6.86141C114.799 6.68831 115.373 6.41464 115.695 6.29594C116.221 6.10306 116.767 5.9646 117.34 5.88629C117.732 5.83686 118.661 5.83686 119.035 5.88555C119.663 5.97622 120.22 6.12212 120.752 6.3422C121.244 6.54579 121.914 6.9398 122.304 7.25155C123.667 8.34726 124.553 9.88338 124.867 11.6902C125.017 12.5664 125.038 13.5257 124.941 14.4875C124.816 15.498 124.489 16.644 124.022 17.7229C123.584 18.7412 123.126 19.5554 122.185 20.9723C118.167 27.0222 113.874 32.719 110.251 36.8135C109.59 37.5603 109.413 37.7169 109.019 37.9146C108.607 38.1215 108.094 38.2072 107.634 38.1462L107.627 38.148ZM113.126 25.4457C114.099 24.1287 115.201 22.5871 116.169 21.1875C117.052 19.9115 118.375 17.9407 118.717 17.394C119.479 16.169 119.945 15.0175 120.113 13.9315C120.171 13.554 120.171 12.8776 120.113 12.5771C120 11.9647 119.818 11.5742 119.456 11.2128C119.278 11.0315 119.202 10.9788 119.049 10.8972C118.597 10.6589 118.051 10.6293 117.497 10.8147C117.251 10.8971 116.879 11.0974 116.632 11.2837C115.387 12.2162 114.43 14.0616 113.933 16.4868C113.875 16.6517 113.717 17.6704 113.533 18.7504C113.041 21.5503 112.274 25.8998 112.139 26.6138C112.139 26.6715 112.139 26.7399 112.139 26.7564C112.139 26.7976 112.472 26.3509 113.14 25.448L113.126 25.4457Z" />
</svg>

<svg width="126" height="48" fill="none" version="1.1" viewBox="0 0 126 48" xmlns="http://www.w3.org/2000/svg">
 <path d="m103.94 47.19c-1-0.1228-1.88-0.6264-2.484-1.4262-0.525-0.6932-0.782-1.5689-0.721-2.4518 0.058-0.8944 0.443-1.7119 1.088-2.3355 0.324-0.3141 0.561-0.4839 0.949-0.671 0.566-0.2802 1.166-0.3956 1.84-0.3561 1.587 0.0907 2.957 1.2615 3.306 2.8288 0.179 0.8078 0.082 1.6371-0.279 2.3894-0.663 1.3817-2.177 2.2103-3.7 2.0235l1e-3 -0.0011zm-85.765-0.0494c-0.5072-0.0495-1.0143-0.2926-1.3899-0.6429-0.3743-0.3512-0.5615-0.6965-0.7561-1.3928-1.0072-3.636-1.8047-6.0111-2.7927-8.3203-2.1657-5.0588-5.2762-9.5138-10.813-15.492-0.85733-0.9265-0.90565-0.9809-1.0067-1.1324-0.96313-1.4409-0.1542-3.3844 1.5429-3.7334l0.17481-0.0412 0.07422-0.3511c0.41559-1.9235 1.3986-3.9544 2.6407-5.4535 0.20862-0.2431 0.79821-0.84904 1.1861-1.2055 2.1724-1.9948 4.5577-3.1718 7.0704-3.4892 0.9077-0.11457 2.0209-0.09067 2.9673 0.05769 2.3418 0.37752 4.6215 1.588 6.4809 3.4438 2.1237 2.1179 3.603 4.9314 4.1596 7.9154 0.0577 0.1319 0.0577 0.2407 0.0577 0.2432 0 0.0036 0.1707-0.0577 0.3703-0.141 0.8876-0.3643 2.9844-1.1771 3.0381-1.1771 0.0578 0 0.0578-0.0741-0.0577-0.2926-0.2127-0.6314-0.3958-1.5115-0.4947-2.2756-0.113-0.854-0.1213-2.0335-0.0743-2.8891 0.2944-2.931 1.6548-5.4766 3.8658-7.2488 1.3534-1.0852 3.1047-1.9183 4.7255-2.2479 0.6959-0.14095 0.957-0.16733 1.7584-0.16733 0.7438-5.7e-4 0.8323 0.00366 1.4037 0.10552 1.7222 0.29839 3.3001 1.2222 4.4041 2.5785 0.8575 1.0538 1.399 2.2908 1.6091 3.6727 0.0743 0.42615 0.0908 1.2406 0.0743 1.6996-0.2128 2.4-1.5422 4.5494-3.9508 6.3358-1.372 1.0172-3.2553 2.0216-5.6156 2.994-0.2128 0.0906-0.3958 0.1648-0.4033 0.1698-0.0742 0.0164 0.5855 0.5489 0.9128 0.7838 0.7157 0.516 1.525 0.8521 2.3658 0.9809 0.3916 0.0576 1.1257 0.0576 1.53 0.0036 1.1279-0.1508 2.3251-0.5622 3.3613-1.1552 2.3588-1.3504 4.5436-4.0304 5.4147-6.6429 0.113-0.3313 0.2045-0.6511 0.287-1.0609 0.0577-0.141 0.0907-0.3322 0.1171-0.4237 0.0577-0.0906 0.108-0.3346 0.1657-0.5391 0.5492-2.2004 1.469-4.0307 2.8122-5.61 0.287-0.34043 0.9842-1.0322 1.3113-1.3076 0.9983-0.83994 2.0313-1.4658 3.1636-1.916 0.9772-0.38823 1.8659-0.61161 2.9524-0.74102 0.3917-0.041239 1.8151-0.049431 2.2081-0.00366 1.0584 0.1154 1.957 0.33383 2.9083 0.71052 1.0579 0.41626 2.1021 1.0432 3.0053 1.8042 0.531 0.44841 1.3062 1.2491 1.6453 1.702l0.1129 0.14342 0.2499 0.01645c0.5995 0.04949 1.0812 0.2646 1.4939 0.64953 0.3579 0.33713 0.63 0.81851 0.7207 1.2942 0.0577 0.28026 0.0577 0.49127 0.0577 0.83994-0.0577 0.33383-0.0577 0.73525-0.1006 1.5711-0.1212 2.7093-0.329 4.5784-0.8594 7.783-0.4114 2.519-1.0808 4.8868-2.1358 7.5763-0.0743 0.1137-0.0908 0.2094-0.0825 0.2135 0 0.0036 0.1369-0.0495 0.2952-0.1204 1.7856-0.7583 3.1497-1.7922 4.1846-3.1706 0.7034-0.9365 1.2867-2.0889 1.6974-3.3576 0.2243-0.6841 0.2944-0.9757 0.329-1.1811 0-0.1079 0.0577-0.3635 0.0825-0.5687 0.1006-0.6817 0.2705-1.4704 0.4758-2.1752 1.3881-4.7311 4.9775-8.0629 9.4798-8.7997 0.9802-0.16074 2.0784-0.17805 3.0918-0.04944 2.0684 0.26047 4.046 1.1433 5.666 2.5297 0.7883 0.67427 1.5621 1.544 2.0472 2.3003l0.0824 0.1285 0.2045 5e-4c0.9321 3e-3 1.7601 0.5029 2.1761 1.3143 0.183 0.361 0.271 0.694 0.271 1.1095 0 0.3156-0.058 0.5242-0.217 1.3901-0.27 1.331-0.352 1.7174-0.46 2.3255-0.425 2.2963-0.663 4.2163-0.757 6.0777-0.057 0.6009-0.057 1.984 0 2.5013 0.117 2.0522 0.52 3.6019 1.177 4.6099 0.138 0.2135 0.275 0.3775 0.544 0.6512 0.291 0.3016 0.461 0.5745 0.579 0.9365 0.291 0.8662 0.057 1.8301-0.586 2.4761-0.501 0.5012-1.108 0.7345-1.831 0.7064-0.6884-0.0329-1.2267-0.2926-1.7911-0.8872-0.531-0.5531-0.953-1.1378-1.3362-1.8255-0.5854-1.054-1.0537-2.4308-1.3029-3.8345-0.0577-0.1409-0.0577-0.2621-0.0577-0.2662 0-0.0037-0.1171 0.0741-0.2499 0.1582-2.2039 1.5009-4.9376 2.1046-7.7393 1.7095-2.8047-0.3957-5.4801-1.8269-7.2373-3.8709-0.183-0.2184-0.6061-0.7542-0.6654-0.8511 0-0.0164-0.0742-0.0164-0.0907 0.0495-1.8437 2.2612-4.2192 3.8425-7.3262 4.8794-0.9802 0.3273-2.227 0.6471-3.3206 0.85l-0.2952 0.0494-0.2532 0.4328c-0.957 1.6266-2.2127 3.5496-3.0876 4.7275-0.9118 1.2281-1.6607 2.0993-2.3645 2.7525-1.6224 1.5059-3.2033 2.4468-4.9501 2.9453-1.3874 0.3956-2.8101 0.4377-4.1118 0.1195-1.9053-0.4657-3.4183-1.6523-4.2419-3.3263-0.4437-0.8962-0.6523-1.7514-0.6762-2.7628-0.0577-1.2771 0.2325-2.4107 0.8422-3.6145 0.5995-1.1765 1.4523-2.1267 2.6147-2.904 1.6465-1.1017 3.7173-1.7403 7.0005-2.159 0.7932-0.1014 1.2364-0.1475 3.8322-0.4047 0.6358-0.0577 1.3986-0.1418 1.696-0.1748 0.296-0.0412 0.5491-0.0577 0.5615-0.0577 0.0577 0 0.9983-1.9496 0.9701-1.977 0-0.0044-0.0577 0.0037-0.1006 0.0165-0.291 0.1046-0.948 0.2711-1.364 0.3478-0.7636 0.141-1.2939 0.1871-2.1179 0.1871-0.8806-0.0014-1.4885-0.0577-2.3471-0.2357-2.3296-0.4707-4.5311-1.6557-6.1107-3.2907-0.5492-0.5696-1.1569-1.353-1.451-1.8758-0.0577-0.0494-0.0577-0.1047-0.0742-0.1039 0 8e-4 -0.0907 0.0825-0.1699 0.1814-0.639 0.7525-1.5512 1.6231-2.3907 2.2832-1.5817 1.2433-3.2173 2.0765-5.1589 2.6287-1.1914 0.3372-2.4631 0.4938-3.6425 0.4443-3.1625-0.1327-5.9389-1.6656-8.2581-4.5618-0.113-0.1401-0.2161-0.2539-0.2202-0.2539-0.0577 0-1.5575 0.5746-2.2835 0.8581-1.3649 0.5325-2.4781 1.006-3.5073 1.4961l-0.2243 0.1055-0.1006 0.3157c-0.3999 1.4542-1.0758 2.8265-1.9552 3.9943-0.9269 1.236-1.3105 1.6629-1.8812 2.1047-0.8836 0.6841-1.8662 1.0495-2.8198 1.0495-0.4073 0-0.7495-0.0495-1.143-0.1863-0.6622-0.22-1.2223-0.6256-1.652-1.1993-0.1715-0.225-0.4032-0.6792-0.4964-0.9617-0.4156-1.2735-0.113-2.7453 0.8443-4.0825 0.2045-0.2877 0.4032-0.5235 0.8073-0.9587 0.183-0.2036 0.3867-0.4121 0.4197-0.4649 0.1171-0.1319 0.7273-0.6948 1.0301-0.9527 0.6267-0.5316 1.6119-1.241 2.2801-1.6415 0.0742-0.0413 0.1369-0.0907 0.141-0.1047 0.0577-0.0412 0-0.7254-0.0577-1.1633-0.1707-1.3026-0.6119-2.6035-1.2867-3.79-0.2161-0.366-0.6193-0.9648-0.8957-1.3101-0.2952-0.3734-0.8213-0.9184-1.1569-1.2071-0.9208-0.7938-1.9252-1.3335-2.9466-1.5839-0.5252-0.1286-0.8966-0.1649-1.5068-0.1534-0.6341 0.0083-1.0633 0.0907-1.6789 0.2869-1.1902 0.3866-2.3696 1.1467-3.5327 2.2814-0.39169 0.3792-0.58547 0.6158-0.85841 1.0291-0.71987 1.0946-1.1741 2.2825-1.3058 3.4167-0.05772 0.3099-0.05772 0.8932 0 1.1831 0.05772 0.4978 0.20862 1.0309 0.4156 1.5134 0.11297 0.2465 0.12451 0.2745 0.42961 0.6207 2.8159 3.2633 4.9812 6.2418 6.6648 9.1634 2.1445 3.7248 3.687 7.6114 5.2155 13.138 0.2705 0.9828 0.2746 1.0091 0.2911 1.316 0.0577 1.0818-0.6193 2.0438-1.6558 2.4002-0.2911 0.1005-0.7174 0.1459-1.0317 0.1104l0.0253 0.0226zm38.335-9.6747c1.042-0.1204 2.1628-0.6842 3.2897-1.6583 0.6383-0.5523 1.399-1.4286 2.2145-2.5477 0.4156-0.5737 0.9308-1.3266 0.9147-1.341 0-0.0044-0.7999 0.0742-1.6307 0.1632-3.4262 0.3775-5.2662 0.9395-6.2118 1.8982-0.1831 0.1921-0.3703 0.4344-0.4915 0.7048-0.216 0.4303-0.2828 0.7427-0.2828 1.1513 0 0.3874 0.0825 0.6808 0.2498 0.9475 0.3291 0.5169 1.0879 0.7806 1.952 0.6817l-0.0039 3e-4zm33.968-12.207c2.9416-0.3371 4.9246-2.5605 5.5619-6.2363 0.1411-0.842 0.1831-1.2406 0.1831-1.9385 0-1.9725-0.4156-3.2273-1.4604-4.3723-0.2202-0.2423-0.5847-0.5786-0.8494-0.7814-0.7892-0.6108-1.7427-1.0187-2.7657-1.1833-0.3199-0.0494-1.1498-0.0577-1.5064-0.0165-0.7594 0.0907-1.4031 0.2811-2.1127 0.6314-2.1143 1.0465-3.594 3.2386-4.0615 6.0166-0.1789 1.0635-0.2416 2.3913-0.1369 3.0802 0.1204 0.842 0.461 1.6087 1.02 2.336 0.2161 0.2835 0.7817 0.8319 1.1013 1.0699 1.0433 0.7797 2.246 1.2533 3.556 1.4001 0.3488 0.0412 1.1282 0.0412 1.4676-7e-4l0.0031-0.0052zm-26.512-4.8269c2.7207-0.2456 4.6385-2.0238 5.4892-5.0892 0.1624-0.5927 0.2539-1.0869 0.3743-1.897 0.0577-0.3825 0.0577-0.4443 0.0577-1.1989 0-0.821 0-1.0457-0.1006-1.5505-0.1913-1.1794-0.6473-2.1-1.4531-2.9313-0.6844-0.70558-1.3703-1.1756-2.1927-1.5062-1.6928-0.68085-3.6779-0.5127-5.3195 0.45088-1.988 1.1668-3.3101 3.3222-3.7262 6.0751-0.1418 0.9506-0.1831 2.195-0.1039 2.8113 0.1088 0.7056 0.362 1.3892 0.7636 1.9847 0.2457 0.3652 0.4114 0.5688 0.7347 0.8893 0.9138 0.9093 2.165 1.5637 3.5119 1.8388 0.2746 0.0495 0.6746 0.1113 0.9349 0.1319 0.2201 0.0165 0.7932 0.0083 1.013-0.0044l0.0167-0.0045zm-27.53-6.188c2.1933-0.8832 3.7766-1.6788 4.8931-2.4605 0.8353-0.5844 1.5022-1.2483 1.8633-1.855 0.5492-0.92451 0.531-1.9886-0.0577-2.8748-0.3876-0.57617-0.9882-0.95766-1.7051-1.074-0.2045-0.04124-0.7463-0.04124-0.9601 0.00146-0.8393 0.13189-1.6819 0.46901-2.5085 1.0087-0.6465 0.42286-1.2072 0.98189-1.617 1.6087-0.1699 0.2613-0.4387 0.79789-0.5492 1.088-0.4659 1.3058-0.531 2.8743-0.1369 4.3902 0.0578 0.1822 0.1006 0.3512 0.1006 0.3776 0 0.0164 1e-4 0.0412 0.0743 0.0412 0 0 0.3001-0.1154 0.653-0.2555l-0.0498 0.0041zm71.196 23.904c-0.525-0.0742-1.048-0.3338-1.417-0.7155-0.37-0.3701-0.56-0.7723-0.662-1.292 0-0.0742-0.057-0.2564-0.057-0.4113 0-0.2704 0-0.3133 0.241-1.4687 0.729-3.6237 1.747-9.1877 2.981-16.268 0.407-2.347 0.415-2.3824 0.543-2.9355 0.875-3.8474 2.705-6.7041 5.248-8.1955 0.295-0.1731 0.869-0.44677 1.191-0.56547 0.526-0.19288 1.072-0.33134 1.645-0.40965 0.392-0.04943 1.321-0.04943 1.695-7.4e-4 0.628 0.09067 1.185 0.23657 1.717 0.45665 0.492 0.20359 1.162 0.5976 1.552 0.90935 1.363 1.0957 2.249 2.6318 2.563 4.4386 0.15 0.8762 0.171 1.8355 0.074 2.7973-0.125 1.0105-0.452 2.1565-0.919 3.2354-0.438 1.0183-0.896 1.8325-1.837 3.2494-4.018 6.0499-8.311 11.747-11.934 15.841-0.661 0.7468-0.838 0.9034-1.232 1.1011-0.412 0.2069-0.925 0.2926-1.385 0.2316l-7e-3 0.0018zm5.499-12.702c0.973-1.317 2.075-2.8586 3.043-4.2582 0.883-1.276 2.206-3.2468 2.548-3.7935 0.762-1.225 1.228-2.3765 1.396-3.4625 0.058-0.3775 0.058-1.0539 0-1.3544-0.113-0.6124-0.295-1.0029-0.657-1.3643-0.178-0.1813-0.254-0.234-0.407-0.3156-0.452-0.2383-0.998-0.2679-1.552-0.0825-0.246 0.0824-0.618 0.2827-0.865 0.469-1.245 0.9325-2.202 2.7779-2.699 5.2031-0.058 0.1649-0.216 1.1836-0.4 2.2636-0.492 2.7999-1.259 7.1494-1.394 7.8634v0.1426c0 0.0412 0.333-0.4055 1.001-1.3084l-0.014-0.0023z" fill="#569CCD" stroke="#EA5254" stroke-width=".028275"/>
</svg>
